X: 0481
T: *TEST* (TREMONT QUADRILLES)
C: Composed by C. F. Bauer
B: Oliver Ditson "The Boston Collection of Instrumental Music" 1910 p.48-52
F: http://conquest.imslp.info/files/imglnks/usimg/8/8f/IMSLP175643-PMLP309456-bostoncollection00bost_bw.pdf
%: 2012 John Chambers <jc:trillian.mit.edu>
V: 1 nm="VIOLINO PRIMO"
V: 2 nm="SECONDO"
% %staves [1 2]
M: 2/4
L: 1/16
K: D
% ------------------------- -------------------------
V: 1
P: 1
"^p48s1v1"\
zdcB |\
A2cd e2A2 | f2d2 zefg | a2e2g2f2 | fed2 zdcB |\
A2cd e2A2 | f2d2 zdef | gfga ^ab=ag | fedc d2z2 H|]
"^p48s2v1"\
e6 dc | cdBc A2BA | ^GAFG EGBd | caec A2Bc |\
df^ga cega | Bd^ef Ac^d=e | GB^de EGcB | "_D.C."A4 |]
% -------------------------
V: 2
"^p48s1v2"\
z4 |\
z2[E2C2] z2[E2C2] | z2[F2D2] z2[F2D2] | z2[E2C2] z2[E2C2] | z2[F2D2] z2[F2D2] |\
z2[G2A,2] z2[E2C2] | z2[F2D2] z2[F2D2] | z2[G2A,2] z2[E2C2] | D2[G2A,2] [F2A,2]z2 H|]
"^p48s2v2"\
c6 BA | A2^G2A2C2 | E2A,2^G,2[E2D2] | [E2C2][E2C2][E2C2][E2C2] |\
A2F2 A2E2 | F2D2E2C2 | B,2E2[E2D2][E2D2] | "_D.C."[E4C4] |]
% -------------------------
%%begintext fill
%% Right and left four -----
%%endtext
% ------------------------- -------------------------
V: 1
P: 2
M: 2/4
L: 1/16
K: A
[|\
"^p49s1v1"\
c2f2e2^d2 | e2ac' e2c2 | e2fe B2cB | A2GF EGBd |\
c2f2e2^e2 | fb d'4 c'a | c'aec ^de=dB | (B4 A2) H|]
"^p49s2v1"\
|: c>d |\
e>^d-d>c B>AG>F | E>GA>B c>Bc>d | e>^de>^e f>ef>g | a>ga>f e>dc>d |\
e>^d-d>c B>AG>F | E>Ac>e a2g>f | e>ec>A B>^Bc>=B | (B3c/B/ A2) :|
% -------------------------
V: 2
M: 2/4
L: 1/16
K: A
[|\
"^p49s1v2"\
A2d2c2^B2 | c2A2c2A2 | A2A2 F2F2 | ^D2[D2A,2][E2G,2]G2 |\
A2d2 c4 | d2 f4 f2 | ec AE FEB,D | (D4 C2) H|]
"^p49s2v2"\
|: A>B |\
c>^B=B>A G>FE>D | C>EF>G A>GA>B | c>^Bc>c d>cd>B | c>Bc>d c>BA>B |\
c>^B=B>A G>FE>D | C2E>A c2e>d | c>AE>C D>^DE>=D | (D3E/D/ C2) :|
% -------------------------
%%begintext fill
%% Forward two, cross over. -----
%%endtext
% ------------------------- -------------------------
V: 1
P: 3
M: 6/8
L: 1/8
K: D
"^p50s1v1"\
dcd | e2B efe | dfa gab | ag/f/e/d/ cdf |^d2e aba |\
e'2a aba | g2e efe | a2e efe | d3 H|]
"^p50s2v1"\
f2f |\
a2g g2f | f2e e2d | d2c Bdc | A3 g2g |\
b2a a2g | g2f f2f | ^efa d'c'e | f3- f2f |
% -------------------------
V: 2
M: 6/8
L: 1/8
K: D
"^p50s1v2"\
FEF |\
G2G GAG | FDF EFG | FAF EFA | GAc [cG][cG][cG] |\
[cG][cG][cG] [cG][cG][cG] | [cG][cG][cG] [cG][cG][cG] | [cG][cG][cG] [AG][AG][AG] | [A3F3] H|]
"^p50s2v2"\
d2d |\
f2e e2d | d2c c2B | B2A ^GFE | C3 e2e |\
g2f f2e | e2d d2c | cAc ^E^GB | A3- A2A |
% -------------------------
%%begintext fill
%% First two forward and back. -----
%%endtext
%sep 5 200 5
% ------------------------- -------------------------
V: 1
P: 4
M: 2/4
L: 1/16
K: A
[|\
"^p51s1v1"\
e2{g}a2c2{^d}e2 | A2AB c2A2 | e2dc B2f2 | e2c2A2z2 |\
{^d}e2{g}a2{^B}c2{d}e2 | A2AB c2A2 | e2dc B2cB | A2A2A2z2 H|]
"^p51s2v1"\
c4 A2c2 | f4 e4 | c4 A2c2 | f4 e4 |\
(e2G2)(G2e2) | (e2G2)(G2e2) | =f6 e2 | E4 z4 |
% -------------------------
V: 2
M: 2/4
L: 1/16
K: A
[|\
"^p51s1v2"\
z2[E2C2] z2[E2C2] | z2[E2C2] z2[E2C2] | z2[E2D2] z2[E2D2] | z2[E2C2] z2[E2C2] |\
A,ECE A,ECE | A,ECE A,ECE | G,EB,E G,EB,E | A,ECE A,2z2 H|]
"^p51s2v2"\
z2[E2C2] z2[E2C2] | z2[E2C2] z2[E2C2] | z2[E2C2] z2[E2C2] | z2[E2C2] z2[E2C2] |\
z2[D2B,2] z2[D2B,2] | z2[D2B,2] z2[D2B,2] | z2[D2G,2] z2[D2G,2] | z2[D2G,2] z2[D2G,2] |
% -------------------------
%%begintext fill
%% Four ladies right hand across, left hand back, right hand to partners. -----
%%endtext
